X:1763
T:Eddie Kelly's
O:england
M:4/4
L:1/8
S:Se/amus Mac Conaonaigh
R:reel
K:Dm
B | AGEC D3 C | A,D (3DDD A,D (3DDD | EFFE F3 G | (3A=Bc fe d3 c |
AGEC A,3 =B | C3 D EGc=B | dfef cG (3A=Bc | BGFE FDD :||
||: e | fddc d3 e | fA (3def eAce | fddc defd | eg (3ggg edce |
fddc defd | egaf gedf | edc=B cG (3ABc | BGFE FDD :||
